svgs/solid/blueberries.svg

<svg xmlns="http://www.w3.org/2000/svg" viewBox="0 0 512 512"><!--! Font Awesome Pro 6.1.1 by @fontawesome - https://fontawesome.com License - https://fontawesome.com/license (Commercial License) Copyright 2022 Fonticons, Inc. --><path d="M336 0C255.3 0 187.4 54.39 166.7 128.5C169.8 128.3 172.9 128 176 128c114.7 0 208 93.31 208 208c0 3.146-.333 6.211-.4717 9.324C457.6 324.6 512 256.7 512 176C512 78.8 433.2 0 336 0zM416 128h-32v32c0 8.844-7.156 16-16 16S352 168.8 352 160V128h-32c-8.844 0-16-7.156-16-16S311.2 96 320 96h32V64c0-8.844 7.156-16 16-16S384 55.16 384 64v32h32c8.844 0 16 7.156 16 16S424.8 128 416 128zM176 160C78.8 160 0 238.8 0 336C0 433.2 78.8 512 176 512s176-78.8 176-176C352 238.8 273.2 160 176 160zM224 288H192v32c0 8.844-7.156 16-16 16S160 328.8 160 320V288H128C119.2 288 112 280.8 112 272S119.2 256 128 256h32V224c0-8.844 7.156-16 16-16S192 215.2 192 224v32h32c8.844 0 16 7.156 16 16S232.8 288 224 288z"/></svg>

<svg xmlns="http://www.w3.org/2000/svg" viewBox="0 0 512 512"><!--! Font Awesome Pro 6.4.2 by @fontawesome - https://fontawesome.com License - https://fontawesome.com/license (Commercial License) Copyright 2023 Fonticons, Inc. --><path d="M512 176C512 78.8 433.2 0 336 0C255.4 0 187.4 54.2 166.6 128.2c3.1-.1 6.3-.2 9.4-.2c114.9 0 208 93.1 208 208c0 3.2-.1 6.3-.2 9.4C457.8 324.6 512 256.6 512 176zM176 512a176 176 0 1 0 0-352 176 176 0 1 0 0 352zm0-304c8.8 0 16 7.2 16 16v32h32c8.8 0 16 7.2 16 16s-7.2 16-16 16H192v32c0 8.8-7.2 16-16 16s-16-7.2-16-16V288H128c-8.8 0-16-7.2-16-16s7.2-16 16-16h32V224c0-8.8 7.2-16 16-16zM384 64V96h32c8.8 0 16 7.2 16 16s-7.2 16-16 16H384v32c0 8.8-7.2 16-16 16s-16-7.2-16-16V128H320c-8.8 0-16-7.2-16-16s7.2-16 16-16h32V64c0-8.8 7.2-16 16-16s16 7.2 16 16z"/></svg>
